X:1
T:6 Lieder, Op.7
T:Wunsch
T:2. Wunsch
T:Johanna Kinkel
T:6 Lieder, Op.7 
T:August Kopisch
T:Creative Commons copyright waiver (CC0 1.0 Universal)
T:Creative Commons copyright waiver (CC0 1.0 Universal)
C:Johanna Kinkel (originally published under the name J. Mathieux)
Z:August Kopisch
Z:Creative Commons copyright waiver (CC0 1.0 Universal)
%%score ( 1 2 ) { 3 | 4 }
L:1/8
Q:1/4=90
M:6/8
K:A
V:1 treble nm="Gesang\nVoice"
V:2 treble 
V:3 treble nm="Pianoforte"
V:4 bass 
V:1
"^Andantino" z | z6 | z6 | z6 | z2 z z2 c | c>d c G/A/B A/G/ | (A2 (3G/)A/G/ F2 F | %7
w: ||||Im|Mee- * re möcht * * ich *|fah- * * * ren, mit|
w: |||||||
w: |||||||
 E2 E e2 (3d/c/B/ | c3 z2 z | d2 A B =G B | A3 F2 F/^G/ | A2 (3A/G/F/ C2 (3^E/F/G/ | F3 z2 A |: %13
w: Dir, mit dir al- * *|lein,|möcht' auf ein- sa- mem|Ei- land mit *|Dir ver- * * schla- gen * *|sein. Da|
w: ||||||
w: ||||||
[Q:1/4=116]"^Allegretto ma non troppo" A F A B3/2 A/ G | A3 F2 F | B2 F d2 (3d/c/B/ | c3 z2 A | %17
w: wä- ren nicht Muh- men und|Ba- sen, nur|Du und ich al- * *|lein, da|
w: schlängst Du * * * *||||
w: säs- sen * * * *||||
 AF A BA G | d3 c2 c | ^e2 c B2 (3B/A/G/ | F3 z2 A/B/ | c2 (3c/d/e/ d2 d/4c/4B/4c/4 |1,2 %22
w: wür- dest Du nicht * so|sprö- de, nicht|hart und grau- sam * *|sein, nicht *|hart und * * grau- sam * * *|
w: ich, _ _ _ _ _|_ _ _|||mei- nes * * * * * * *|
w: Gast wär' * * * *||||wei- ter * * * * * * *|
 A3 z2 A :|3 A3 z2 c ||[Q:1/4=90]"^Tempo Imo  Andantino" (c>d) c (G/A/B) A/G/ | %25
w: sein. Da|* Im|Mee- * re möcht' * * ich *|
w: * Wir|||
w: |mehr. *||
 (A2 (3G/A/G/) F z F | E2 E e2 (3d/c/B/ | c3 z2 z | d2 A B =G B | A3 F2 F/^G/ | %30
w: fah- * * * ren, mit|Dir, mit Dir al- * *|lein,|möcht' auf ein- sa- mem|Ei- land, mit *|
w: |||||
w: |||||
 A2 (3A/G/F/ C2 (3^E/F/G/ | F3 z2 z | z6 | z6 | z6 | z4 z |] %36
w: Dir ver- * * schla- gen * *|sein.|||||
w: ||||||
w: ||||||
V:2
 x | x6 | x6 | x6 | x6 | x6 | x6 | x6 | x6 | x6 | x6 | x6 | x6 |: x6 | x6 | B F F d2 (3d/c/ B/ | %16
 x6 | A F A B A G | x6 | x6 | x6 | x6 |1,2 x6 :|3 x6 || x6 | x6 | x6 | x6 | x6 | x6 | x6 | x6 | %32
 x6 | x6 | x6 | x5 |] %36
V:3
 [Ac] | [Ac]>[Bd][Ac] [^EG]/[FA]/[GB] [FA]/[EG]/ | z6 | z6 | z6 | z6 | z6 | z6 | z6 | z6 | z6 | %11
 z6 | z6 |: z6 | z6 | z6 | z6 | z6 | z6 | z6 | z6 | z6 |1,2 z6 :|3 z6 || z6 | z6 | z6 | z6 | z6 | %29
 z6 | z6 | z6 | z6 | z6 | z6 | z4 z |] %36
V:4
 z | [F,,F,] ([F,A,]C,) [C,,C,] ([G,B,]C,) | z6 | z6 | z6 | z6 | z6 | z6 | z6 | z6 | z6 | z6 | %12
 z6 |: z6 | z6 | z6 | z6 | z6 | z6 | z6 | z6 | z6 |1,2 z6 :|3 z6 || z6 | z6 | z6 | z6 | z6 | z6 | %30
 z6 | z6 | z6 | z6 | z6 | z z z z z |] %36

